src/assets/images/avatar.svg

<svg fill="none" height="30" viewBox="0 0 30 30" width="30" xmlns="http://www.w3.org/2000/svg" xmlns:xlink="http://www.w3.org/1999/xlink"><clipPath id="a"><path d="m0 0h30v30h-30z"/></clipPath><g clip-path="url(#a)" fill="#5a57c6"><path d="m16 26c1.0609 0 2.0783-.4214 2.8284-1.1716.7502-.7501 1.1716-1.7675 1.1716-2.8284h-2c0 .5304-.2107 1.0391-.5858 1.4142s-.8838.5858-1.4142.5858h-3v2z"/><path clip-rule="evenodd" d="m15 31.0068c-.3628-.0002-.7253-.0195-1.086-.058l.086.058h-12v-18h.038c.25689-3.35255 1.80274-6.47514 4.31296-8.71215s5.78954-3.414422 9.14944-3.28501c3.3598.12942 6.5389 1.55559 8.8696 3.97906s3.6318 5.6557 3.63 9.0181v17zm2.948-20.2 2.6.172c1.08 1.1651 1.9157 2.5347 2.458 4.028h-14.592c1.13178-1.4181 2.5902-2.5408 4.2506-3.2723 1.6604-.7314 3.4732-1.0497 5.2834-.9277zm.222 6.2h5.42l.08.392c.1008.5299.1477 1.0686.14 1.608h-2.81c-.6207.0003-1.2261-.1919-1.733-.5501-.5068-.3582-.8901-.8648-1.097-1.4499zm2.83 4h2.572c-.2419 1.0704-.5931 2.1132-1.048 3.112-.6463 1.456-1.7012 2.6931-3.0367 3.5615-1.3355.8683-2.8943 1.3305-4.4873 1.3305s-3.1518-.4622-4.4873-1.3305c-1.3355-.8684-2.39038-2.1055-3.0367-3.5615-.45752-.9905-.78297-2.0368-.968-3.112h2.492c1.1527.0002 2.27-.3978 3.1629-1.1267s1.5066-1.744 1.7371-2.8733h2.2c.2305 1.1293.8442 2.1444 1.7371 2.8733s2.0102 1.1269 3.1629 1.1267zm-12-2h-2.53c.064-.46.18-.906.36-1.338.096-.224.198-.446.306-.662h4.694c-.2069.5851-.5902 1.0917-1.097 1.4499-.5069.3582-1.11235.5504-1.733.5501z" fill-rule="evenodd"/></g></svg>

<svg width="30" height="30" viewBox="0 0 30 30" fill="none" xmlns="http://www.w3.org/2000/svg">
<g clip-path="url(#clip0_153_637)">
<path d="M16 26C17.0609 26 18.0783 25.5786 18.8284 24.8284C19.5786 24.0783 20 23.0609 20 22H18C18 22.5304 17.7893 23.0391 17.4142 23.4142C17.0391 23.7893 16.5304 24 16 24H13V26H16Z" fill="#5A57C6"/>
<path fill-rule="evenodd" clip-rule="evenodd" d="M15 31.0068C14.6372 31.0066 14.2747 30.9873 13.914 30.9488L14 31.0068H2V13.0068H2.038C2.29489 9.65425 3.84074 6.53166 6.35096 4.29465C8.86118 2.05764 12.1405 0.880228 15.5004 1.00964C18.8602 1.13906 22.0393 2.56523 24.37 4.9887C26.7007 7.41217 28.0018 10.6444 28 14.0068V31.0068H15ZM17.948 10.8068L20.548 10.9788C21.628 12.1439 22.4637 13.5135 23.006 15.0068H8.414C9.54578 13.5887 11.0042 12.466 12.6646 11.7345C14.325 11.0031 16.1378 10.6848 17.948 10.8068ZM18.17 17.0068H23.59L23.67 17.3988C23.7708 17.9287 23.8177 18.4674 23.81 19.0068H21C20.3793 19.0071 19.7739 18.8149 19.267 18.4567C18.7602 18.0985 18.3769 17.5919 18.17 17.0068ZM21 21.0068H23.572C23.3301 22.0772 22.9789 23.12 22.524 24.1188C21.8777 25.5748 20.8228 26.8119 19.4873 27.6803C18.1518 28.5486 16.593 29.0108 15 29.0108C13.407 29.0108 11.8482 28.5486 10.5127 27.6803C9.1772 26.8119 8.12232 25.5748 7.476 24.1188C7.01848 23.1283 6.69303 22.082 6.508 21.0068H9C10.1527 21.007 11.27 20.609 12.1629 19.8801C13.0558 19.1512 13.6695 18.1361 13.9 17.0068H16.1C16.3305 18.1361 16.9442 19.1512 17.8371 19.8801C18.73 20.609 19.8473 21.007 21 21.0068ZM9 19.0068H6.47C6.534 18.5468 6.65 18.1008 6.83 17.6688C6.926 17.4448 7.028 17.2228 7.136 17.0068H11.83C11.6231 17.5919 11.2398 18.0985 10.733 18.4567C10.2261 18.8149 9.62065 19.0071 9 19.0068Z" fill="#5A57C6"/>
</g>
<defs>
<clipPath id="clip0_153_637">
<rect width="30" height="30" fill="white"/>
</clipPath>
</defs>
</svg>
